components/Common/Svg/svgs/document.svg

<svg width="40" height="40" viewBox="0 0 40 40" fill="none" xmlns="http://www.w3.org/2000/svg">
<path fill-rule="evenodd" clip-rule="evenodd" d="M16.2877 6.2877C17.2723 5.30313 18.6076 4.75001 20 4.75001C21.3924 4.75001 22.7277 5.30313 23.7123 6.2877C24.6969 7.27226 25.25 8.60762 25.25 10V10.25H14.75V10C14.75 8.60762 15.3031 7.27226 16.2877 6.2877ZM20 2.75001C18.0772 2.75001 16.2331 3.51384 14.8735 4.87348C14.7518 4.99521 14.6348 5.12081 14.5228 5.25001H8.75C8.15326 5.25001 7.58097 5.48706 7.15901 5.90902C6.73705 6.33097 6.5 6.90327 6.5 7.50001V33.75C6.5 34.3467 6.73705 34.919 7.15901 35.341C7.58097 35.763 8.15326 36 8.75 36H31.25C31.8467 36 32.419 35.763 32.841 35.341C33.263 34.919 33.5 34.3467 33.5 33.75V7.50001C33.5 6.90327 33.2629 6.33098 32.841 5.90902C32.419 5.48706 31.8467 5.25001 31.25 5.25001H25.4772C25.3652 5.12081 25.2482 4.99521 25.1265 4.87348C23.7669 3.51384 21.9228 2.75001 20 2.75001ZM26.7082 7.25001C27.0626 8.11449 27.25 9.04759 27.25 10V11.25C27.25 11.8023 26.8023 12.25 26.25 12.25H13.75C13.1977 12.25 12.75 11.8023 12.75 11.25V10C12.75 9.04759 12.9374 8.11449 13.2918 7.25001H8.75C8.6837 7.25001 8.62011 7.27635 8.57322 7.32323C8.52634 7.37012 8.5 7.4337 8.5 7.50001V33.75C8.5 33.8163 8.52634 33.8799 8.57322 33.9268C8.62011 33.9737 8.68369 34 8.75 34H31.25C31.3163 34 31.3799 33.9737 31.4268 33.9268C31.4737 33.8799 31.5 33.8163 31.5 33.75V7.50001C31.5 7.4337 31.4737 7.37011 31.4268 7.32323C31.3799 7.27635 31.3163 7.25001 31.25 7.25001H26.7082ZM15 17.75C14.4477 17.75 14 18.1977 14 18.75C14 19.3023 14.4477 19.75 15 19.75H25C25.5523 19.75 26 19.3023 26 18.75C26 18.1977 25.5523 17.75 25 17.75H15ZM15 22.75C14.4477 22.75 14 23.1977 14 23.75C14 24.3023 14.4477 24.75 15 24.75H25C25.5523 24.75 26 24.3023 26 23.75C26 23.1977 25.5523 22.75 25 22.75H15Z" fill="#161616"/>
</svg>

<svg width="40" height="40" viewBox="0 0 40 40" fill="none" xmlns="http://www.w3.org/2000/svg"><path fill-rule="evenodd" clip-rule="evenodd" d="M16.288 6.288A5.25 5.25 0 0 1 25.25 10v.25h-10.5V10a5.25 5.25 0 0 1 1.538-3.712ZM20 2.75a7.25 7.25 0 0 0-5.477 2.5H8.75A2.25 2.25 0 0 0 6.5 7.5v26.25A2.25 2.25 0 0 0 8.75 36h22.5a2.25 2.25 0 0 0 2.25-2.25V7.5a2.25 2.25 0 0 0-2.25-2.25h-5.773A7.243 7.243 0 0 0 20 2.75Zm6.708 4.5c.355.864.542 1.798.542 2.75v1.25a1 1 0 0 1-1 1h-12.5a1 1 0 0 1-1-1V10c0-.952.187-1.886.542-2.75H8.75a.25.25 0 0 0-.25.25v26.25a.25.25 0 0 0 .25.25h22.5a.25.25 0 0 0 .25-.25V7.5a.25.25 0 0 0-.25-.25h-4.542ZM15 17.75a1 1 0 1 0 0 2h10a1 1 0 1 0 0-2H15Zm0 5a1 1 0 1 0 0 2h10a1 1 0 1 0 0-2H15Z" fill="#161616"/></svg>
